epam-assets/icon-sources/18/page.svg

<svg width="18" height="18" viewBox="0 0 18 18" fill="none" xmlns="http://www.w3.org/2000/svg">
<g id="18/page">
<path id="icon" d="M5.25 12.75H10.5V11.25H5.25V12.75ZM5.25 9.75H12.75V8.25H5.25V9.75ZM5.25 6.75H12.75V5.25H5.25V6.75ZM3.75 15.75C3.3375 15.75 2.98425 15.6033 2.69025 15.3097C2.39675 15.0157 2.25 14.6625 2.25 14.25V3.75C2.25 3.3375 2.39675 2.98425 2.69025 2.69025C2.98425 2.39675 3.3375 2.25 3.75 2.25H14.25C14.6625 2.25 15.0157 2.39675 15.3097 2.69025C15.6033 2.98425 15.75 3.3375 15.75 3.75V14.25C15.75 14.6625 15.6033 15.0157 15.3097 15.3097C15.0157 15.6033 14.6625 15.75 14.25 15.75H3.75ZM3.75 14.25H14.25V3.75H3.75V14.25Z" fill="#6C6F80"/>
</g>
</svg>

<svg xmlns="http://www.w3.org/2000/svg" width="18" height="18" fill="none" viewBox="0 0 18 18">
  <path fill="#6C6F80" d="M5.25 12.75h5.25v-1.5H5.25v1.5Zm0-3h7.5v-1.5h-7.5v1.5Zm0-3h7.5v-1.5h-7.5v1.5Zm-1.5 9c-.413 0-.766-.147-1.06-.44a1.446 1.446 0 0 1-.44-1.06V3.75c0-.413.147-.766.44-1.06.294-.293.647-.44 1.06-.44h10.5c.412 0 .766.147 1.06.44.293.294.44.647.44 1.06v10.5c0 .412-.147.766-.44 1.06a1.45 1.45 0 0 1-1.06.44H3.75Zm0-1.5h10.5V3.75H3.75v10.5Z"/>
</svg>
